assets/offering/eldsvada2.svg

<svg width="48" height="47" viewBox="0 0 48 47" fill="none" xmlns="http://www.w3.org/2000/svg">
<mask id="mask0" mask-type="alpha" maskUnits="userSpaceOnUse" x="0" y="0" width="48" height="47">
<path fill-rule="evenodd" clip-rule="evenodd" d="M9.15527e-05 0.232422H48V46.7952H9.15527e-05V0.232422Z" fill="white"/>
</mask>
<g mask="url(#mask0)">
<path fill-rule="evenodd" clip-rule="evenodd" d="M48.0001 23.5139C48.0001 36.3721 37.2551 46.7954 24.0001 46.7954C10.7451 46.7954 9.15527e-05 36.3721 9.15527e-05 23.5139C9.15527e-05 10.6557 10.7451 0.232422 24.0001 0.232422C37.2551 0.232422 48.0001 10.6557 48.0001 23.5139Z" fill="#FF8A80"/>
</g>
<path fill-rule="evenodd" clip-rule="evenodd" d="M20.5236 10.4624C20.2456 11.8797 19.4026 15.466 17.6426 17.7815C17.0896 18.6167 16.5236 19.354 15.9756 20.066C14.4036 22.109 13.1626 23.7222 13.1626 26.6537C13.1626 31.9386 18.3286 36.7511 24.0006 36.7511C29.6716 36.7511 34.8376 31.9386 34.8376 26.6537C34.8376 24.0229 31.7916 19.7178 30.5386 18.059L29.4986 20.5937C29.2816 21.1234 28.7726 21.4532 28.1746 21.4028C27.5916 21.3649 27.1256 20.9837 26.9846 20.4327C26.2096 17.3751 24.3576 12.1484 20.5236 10.4624ZM24.0006 37.7211C17.8046 37.7211 12.1626 32.4459 12.1626 26.6537C12.1626 23.4001 13.5576 21.5861 15.1736 19.4859C15.7116 18.7865 16.2676 18.0638 16.8196 17.2315C18.8766 14.525 19.6346 9.76682 19.6426 9.71929L19.7316 9.14404L20.2996 9.33321C24.9566 10.8892 27.0946 16.8095 27.9556 20.1998C28.0056 20.3987 28.1726 20.4307 28.2436 20.4356C28.2996 20.4375 28.4866 20.4356 28.5686 20.2348L30.2586 16.1169L30.7946 16.7775C31.0016 17.0306 35.8376 23.0227 35.8376 26.6537C35.8376 32.4459 30.1956 37.7211 24.0006 37.7211Z" fill="white"/>
<path fill-rule="evenodd" clip-rule="evenodd" d="M23.7824 23.2532L20.2244 27.1645C19.1954 28.2412 18.6564 29.61 18.6564 31.1311C18.6564 34.2294 21.0514 36.7506 23.9954 36.7506C26.9234 36.7506 29.3394 34.2265 29.3804 31.1243C29.3804 29.6769 28.8234 28.2694 27.8114 27.1654L23.7824 23.2532ZM23.9954 37.7207C20.5004 37.7207 17.6564 34.7649 17.6564 31.1311C17.6564 29.3859 18.3044 27.7465 19.4834 26.5136L23.7374 21.8369L28.5394 26.501C29.7334 27.8018 30.3804 29.4393 30.3804 31.1311C30.3314 34.7678 27.4674 37.7207 23.9954 37.7207Z" fill="white"/>
</svg>

<svg width="48" height="47" viewBox="0 0 48 47" fill="none" xmlns="http://www.w3.org/2000/svg"><mask id="a" maskUnits="userSpaceOnUse" x="0" y="0" width="48" height="47"><path fill-rule="evenodd" clip-rule="evenodd" d="M0 .232h48v46.563H0V.232z" fill="#fff"/></mask><g mask="url(#a)"><path fill-rule="evenodd" clip-rule="evenodd" d="M48 23.514c0 12.858-10.745 23.281-24 23.281S0 36.372 0 23.514C0 10.656 10.745.232 24 .232s24 10.424 24 23.282z" fill="#FF8A80"/></g><path fill-rule="evenodd" clip-rule="evenodd" d="M20.524 10.462c-.278 1.418-1.121 5.004-2.881 7.32-.553.835-1.12 1.572-1.667 2.284-1.572 2.043-2.813 3.656-2.813 6.588 0 5.285 5.166 10.097 10.838 10.097 5.67 0 10.837-4.812 10.837-10.097 0-2.631-3.046-6.936-4.3-8.595l-1.04 2.535c-.216.53-.725.86-1.323.809a1.288 1.288 0 01-1.19-.97c-.775-3.058-2.627-8.285-6.461-9.97zM24 37.722c-6.196 0-11.838-5.276-11.838-11.068 0-3.254 1.395-5.068 3.01-7.168.539-.7 1.095-1.422 1.647-2.255 2.057-2.706 2.815-7.464 2.823-7.512l.089-.575.568.19c4.657 1.555 6.795 7.476 7.656 10.866.05.199.217.23.288.236a.32.32 0 00.325-.201l1.69-4.118.536.66c.207.254 5.043 6.246 5.043 9.877 0 5.792-5.642 11.067-11.837 11.067z" fill="#fff"/><path fill-rule="evenodd" clip-rule="evenodd" d="M23.782 23.253l-3.558 3.912c-1.029 1.076-1.568 2.445-1.568 3.966 0 3.098 2.395 5.62 5.34 5.62 2.927 0 5.343-2.524 5.384-5.627 0-1.447-.557-2.855-1.569-3.959l-4.029-3.912zm.213 14.468c-3.495 0-6.339-2.956-6.339-6.59 0-1.745.648-3.384 1.827-4.617l4.254-4.677L28.54 26.5c1.194 1.3 1.841 2.938 1.841 4.63-.049 3.637-2.913 6.59-6.385 6.59z" fill="#fff"/></svg>
